src/epub/images/titlepage.svg

<?xml version="1.0" encoding="utf-8"?>
<svg xmlns="http://www.w3.org/2000/svg" xmlns:svg="http://www.w3.org/2000/svg" version="1.1" viewBox="0 0 1400 440">
	<title>The titlepage for the Standard Ebooks edition of The History of Mr. Polly, by H. G. Wells</title>
	<g aria-label="THE HISTORY">
		<path d="m 362.79166,68.245613 h 18.33918 V 130 h 17.59065 V 68.245613 h 18.33918 V 52.807016 h -54.26901 z"/>
		<path d="M 445.98611,99.029239 H 470.875 V 130 h 17.59064 V 52.807016 H 470.875 V 83.590642 H 445.98611 V 52.807016 H 428.39546 V 130 h 17.59065 z"/>
		<path d="M 548.83114,52.807016 H 504.6674 V 130 h 44.16374 v -15.4386 h -26.5731 V 99.029239 h 25.45029 V 83.590642 H 522.25804 V 68.245613 h 26.5731 z"/>
		<path d="m 612.11916,99.029239 h 24.88888 V 130 h 17.59065 V 52.807016 H 637.00804 V 83.590642 H 612.11916 V 52.807016 H 594.52851 V 130 h 17.59065 z"/>
		<path d="M 688.39108,52.807016 H 670.80044 V 130 h 17.59064 z"/>
		<path d="m 731.29167,51.403507 c -12.44445,0 -25.16959,9.169591 -25.16959,23.578948 0,8.046784 5.4269,15.251462 14.69005,19.836258 9.1696,4.584795 17.40351,7.111107 17.40351,12.725147 0,7.20468 -7.29824,7.57895 -11.1345,7.57895 -8.60819,0 -18.90058,-8.70176 -18.90058,-8.70176 l -8.79533,14.78363 c 0,0 10.94737,10.19883 29.00585,10.19883 15.06433,0 29.09942,-6.45614 29.09942,-24.88889 0,-10.105264 -9.45029,-17.40351 -18.05848,-21.052632 -8.79532,-3.742691 -16.09357,-6.83041 -16.09357,-11.134504 0,-4.210526 3.18129,-6.923976 9.16959,-6.923976 7.95322,0 15.62573,5.333333 15.62573,5.333333 l 7.11111,-14.035088 c 0,0 -9.91813,-7.298246 -23.95321,-7.298246 z"/>
		<path d="m 761.27851,68.245613 h 18.33918 V 130 h 17.59064 V 68.245613 h 18.33918 V 52.807016 h -54.269 z"/>
		<path d="m 820.49635,91.356724 c 0,22.549706 16.09357,40.046786 38.92398,40.046786 22.17543,0 38.83041,-17.49708 38.83041,-40.046786 0,-22.549708 -17.40351,-39.953217 -38.83041,-39.953217 -21.23977,0 -38.92398,17.403509 -38.92398,39.953217 z m 18.99415,0 c 0,-11.508772 6.36257,-23.017544 19.92983,-23.017544 13.66081,0 19.83625,11.508772 19.83625,23.017544 0,11.508776 -5.80117,23.017546 -19.83625,23.017546 -14.40936,0 -19.92983,-11.50877 -19.92983,-23.017546 z"/>
		<path d="M 911.01244,52.807016 V 130 h 17.59065 V 99.497075 L 952.18204,130 h 22.36257 l -26.5731,-31.906433 c 9.45029,-2.994152 15.81286,-10.760234 15.81286,-22.362574 0,-15.157895 -10.8538,-22.923977 -25.16959,-22.923977 z m 17.59065,34.245615 V 66.842104 h 2.05848 c 6.64327,0 14.59649,0.467836 14.59649,10.105263 0,9.637428 -7.95322,10.105264 -14.59649,10.105264 z"/>
		<path d="m 966.25368,52.807016 28.44445,42.5731 V 130 h 17.59067 V 95.380116 l 28.4444,-42.5731 h -21.1462 l -16.0935,24.701755 -16.09362,-24.701755 z"/>
	</g>
	<g aria-label="OF MR. POLLY">
		<path d="m 331.63303,191.35672 c 0,22.54971 16.09357,40.04679 38.92398,40.04679 22.17544,0 38.83041,-17.49708 38.83041,-40.04679 0,-22.5497 -17.40351,-39.95321 -38.83041,-39.95321 -21.23976,0 -38.92398,17.40351 -38.92398,39.95321 z m 18.99416,0 c 0,-11.50877 6.36257,-23.01754 19.92982,-23.01754 13.66082,0 19.83626,11.50877 19.83626,23.01754 0,11.50878 -5.80117,23.01755 -19.83626,23.01755 -14.40935,0 -19.92982,-11.50877 -19.92982,-23.01755 z"/>
		<path d="M 466.7807,152.80702 H 422.14912 V 230 h 17.59064 v -30.97076 h 24.98246 v -15.4386 h -24.98246 v -15.34503 h 27.04094 z"/>
		<path d="m 574.54386,230 h 17.59064 l -6.92397,-77.19298 h -18.71345 l -17.12281,44.53801 -17.12281,-44.53801 H 513.53801 L 506.61404,230 h 17.59064 l 3.64912,-45.75439 h 0.46784 l 15.81286,45.28655 h 10.47954 l 15.81286,-45.28655 h 0.46784 z"/>
		<path d="M 604.1813,152.80702 V 230 h 17.59064 V 199.49708 L 645.35089,230 h 22.36257 l -26.5731,-31.90643 c 9.45029,-2.99416 15.81287,-10.76024 15.81287,-22.36258 0,-15.15789 -10.8538,-22.92397 -25.16959,-22.92397 z m 17.59064,34.24561 V 166.8421 h 2.05848 c 6.64327,0 14.59649,0.46784 14.59649,10.10527 0,9.63742 -7.95322,10.10526 -14.59649,10.10526 z"/>
		<path d="m 686.91666,209.97661 c -5.89474,0 -10.66667,4.77193 -10.66667,10.76023 0,5.89474 4.77193,10.66667 10.66667,10.66667 5.9883,0 10.76023,-4.77193 10.76023,-10.66667 0,-5.9883 -4.77193,-10.76023 -10.76023,-10.76023 z"/>
		<path d="M 744.54677,152.80702 V 230 h 17.59065 v -28.63158 h 10.5731 c 15.06433,0 26.38596,-8.88889 26.38596,-24.79532 0,-16 -11.32163,-23.76608 -26.38596,-23.76608 z m 17.59065,34.52631 V 166.8421 h 4.95906 c 6.92398,0 13.47369,2.33919 13.47369,10.2924 0,7.85965 -6.54971,10.19883 -13.47369,10.19883 z"/>
		<path d="m 808.40205,191.35672 c 0,22.54971 16.09356,40.04679 38.92397,40.04679 22.17544,0 38.83041,-17.49708 38.83041,-40.04679 0,-22.5497 -17.4035,-39.95321 -38.83041,-39.95321 -21.23976,0 -38.92397,17.40351 -38.92397,39.95321 z m 18.99415,0 c 0,-11.50877 6.36257,-23.01754 19.92982,-23.01754 13.66082,0 19.83626,11.50877 19.83626,23.01754 0,11.50878 -5.80117,23.01755 -19.83626,23.01755 -14.40935,0 -19.92982,-11.50877 -19.92982,-23.01755 z"/>
		<path d="M 916.50879,152.80702 H 898.91814 V 230 h 44.16375 v -15.4386 h -26.5731 z"/>
		<path d="M 974.32312,152.80702 H 956.73247 V 230 h 44.16373 v -15.4386 h -26.57308 z"/>
		<path d="m 998.81582,152.80702 28.44448,42.5731 V 230 h 17.5906 v -34.61988 l 28.4444,-42.5731 h -21.1461 l -16.0936,24.70175 -16.0936,-24.70175 z"/>
	</g>
	<g aria-label="H. G. WELLS">
		<path d="M 473.03673,366.77193 H 491.7034 V 390 h 13.19298 V 332.10526 H 491.7034 v 23.08772 H 473.03673 V 332.10526 H 459.84375 V 390 h 13.19298 z"/>
		<path d="m 526.2977,374.98246 c -4.42106,0 -8,3.57894 -8,8.07017 0,4.42105 3.57894,8 8,8 4.49123,0 8.07017,-3.57895 8.07017,-8 0,-4.49123 -3.57894,-8.07017 -8.07017,-8.07017 z"/>
		<path d="m 624.37116,357.57895 h -26.73684 v 10.17544 h 13.33333 c 0,7.08772 -6.24561,11.15789 -12.5614,11.15789 -8.14036,0 -14.73685,-8 -14.73685,-17.82456 0,-10.03509 6.59649,-18.10526 14.73685,-18.10526 5.1228,0 9.54386,2.03508 12.91228,7.43859 l 8.63158,-9.47368 c -5.05264,-6.10526 -12.14036,-9.89474 -22.31579,-9.89474 -16.28071,0 -28.21053,13.40351 -28.21053,30.03509 0,16.5614 12.63158,29.96491 28.21053,29.96491 11.36842,0 23.57894,-6.24561 26.73684,-20.91228 z"/>
		<path d="m 643.13431,374.98246 c -4.42105,0 -8,3.57894 -8,8.07017 0,4.42105 3.57895,8 8,8 4.49123,0 8.07018,-3.57895 8.07018,-8 0,-4.49123 -3.57895,-8.07017 -8.07018,-8.07017 z"/>
		<path d="m 727.24726,390 h 14.59649 l 16.49123,-57.89474 h -14.5965 l -9.89473,39.7193 h -0.35088 l -10.52632,-39.7193 h -9.96491 l -10.52631,39.7193 h -0.35088 l -9.89474,-39.7193 H 677.56305 L 694.05427,390 h 14.66667 l 9.26316,-32.49123 z"/>
		<path d="M 799.62226,332.10526 H 766.49945 V 390 h 33.12281 v -11.57895 h -19.92982 v -11.64912 h 19.08771 v -11.57895 h -19.08771 v -11.50877 h 19.92982 z"/>
		<path d="M 825.39968,332.10526 H 812.2067 V 390 h 33.1228 v -11.57895 h -19.92982 z"/>
		<path d="M 870.01043,332.10526 H 856.81745 V 390 h 33.1228 v -11.57895 h -19.92982 z"/>
		<path d="m 922.7615,331.05263 c -9.33334,0 -18.8772,6.8772 -18.8772,17.68421 0,6.03509 4.07018,11.4386 11.01755,14.8772 6.87719,3.43859 13.05263,5.33333 13.05263,9.54385 0,5.40351 -5.47368,5.68422 -8.35088,5.68422 -6.45614,0 -14.17544,-6.52632 -14.17544,-6.52632 l -6.59649,11.08772 c 0,0 8.21053,7.64912 21.75439,7.64912 11.29824,0 21.82456,-4.8421 21.82456,-18.66666 0,-7.57895 -7.08772,-13.05264 -13.54386,-15.78948 -6.59649,-2.80702 -12.07018,-5.12281 -12.07018,-8.35088 0,-3.15789 2.38597,-5.19298 6.8772,-5.19298 5.96491,0 11.7193,4 11.7193,4 l 5.33333,-10.52631 c 0,0 -7.4386,-5.47369 -17.96491,-5.47369 z"/>
	</g>
</svg>

<?xml version="1.0" encoding="utf-8"?>
<svg xmlns="http://www.w3.org/2000/svg" xmlns:svg="http://www.w3.org/2000/svg" version="1.1" viewBox="0 0 1400 440">
	<title>The titlepage for the Standard Ebooks edition of The History of Mr. Polly, by H. G. Wells</title>
	<g>
		<path d="m 362.79166,68.245613 18.33918,0 0,61.754387 17.59065,0 0,-61.754387 18.33918,0 0,-15.438597 -54.26901,0 0,15.438597 z"/>
		<path d="m 445.98611,99.029239 24.88889,0 0,30.970761 17.59064,0 0,-77.192984 -17.59064,0 0,30.783626 -24.88889,0 0,-30.783626 -17.59065,0 0,77.192984 17.59065,0 0,-30.970761 z"/>
		<path d="m 548.83114,52.807016 -44.16374,0 0,77.192984 44.16374,0 0,-15.4386 -26.5731,0 0,-15.532161 25.45029,0 0,-15.438597 -25.45029,0 0,-15.345029 26.5731,0 0,-15.438597 z"/>
		<path d="m 612.11916,99.029239 24.88888,0 0,30.970761 17.59065,0 0,-77.192984 -17.59065,0 0,30.783626 -24.88888,0 0,-30.783626 -17.59065,0 0,77.192984 17.59065,0 0,-30.970761 z"/>
		<path d="m 688.39108,52.807016 -17.59064,0 0,77.192984 17.59064,0 0,-77.192984 z"/>
		<path d="m 731.29167,51.403507 c -12.44445,0 -25.16959,9.169591 -25.16959,23.578948 0,8.046784 5.4269,15.251462 14.69005,19.836258 9.1696,4.584795 17.40351,7.111107 17.40351,12.725147 0,7.20468 -7.29824,7.57895 -11.1345,7.57895 -8.60819,0 -18.90058,-8.70176 -18.90058,-8.70176 l -8.79533,14.78363 c 0,0 10.94737,10.19883 29.00585,10.19883 15.06433,0 29.09942,-6.45614 29.09942,-24.88889 0,-10.105264 -9.45029,-17.40351 -18.05848,-21.052632 -8.79532,-3.742691 -16.09357,-6.83041 -16.09357,-11.134504 0,-4.210526 3.18129,-6.923976 9.16959,-6.923976 7.95322,0 15.62573,5.333333 15.62573,5.333333 l 7.11111,-14.035088 c 0,0 -9.91813,-7.298246 -23.95321,-7.298246 z"/>
		<path d="m 761.27851,68.245613 18.33918,0 0,61.754387 17.59064,0 0,-61.754387 18.33918,0 0,-15.438597 -54.269,0 0,15.438597 z"/>
		<path d="m 820.49635,91.356724 c 0,22.549706 16.09357,40.046786 38.92398,40.046786 22.17543,0 38.83041,-17.49708 38.83041,-40.046786 0,-22.549708 -17.40351,-39.953217 -38.83041,-39.953217 -21.23977,0 -38.92398,17.403509 -38.92398,39.953217 z m 18.99415,0 c 0,-11.508772 6.36257,-23.017544 19.92983,-23.017544 13.66081,0 19.83625,11.508772 19.83625,23.017544 0,11.508776 -5.80117,23.017546 -19.83625,23.017546 -14.40936,0 -19.92983,-11.50877 -19.92983,-23.017546 z"/>
		<path d="m 911.01244,52.807016 0,77.192984 17.59065,0 0,-30.502925 L 952.18204,130 l 22.36257,0 -26.5731,-31.906433 c 9.45029,-2.994152 15.81286,-10.760234 15.81286,-22.362574 0,-15.157895 -10.8538,-22.923977 -25.16959,-22.923977 l -27.60234,0 z m 17.59065,34.245615 0,-20.210527 2.05848,0 c 6.64327,0 14.59649,0.467836 14.59649,10.105263 0,9.637428 -7.95322,10.105264 -14.59649,10.105264 l -2.05848,0 z"/>
		<path d="m 966.25368,52.807016 28.44445,42.5731 0,34.619884 17.59067,0 0,-34.619884 28.4444,-42.5731 -21.1462,0 -16.0935,24.701755 -16.09362,-24.701755 -21.1462,0 z"/>
	</g>
	<g>
		<path d="m 331.63303,191.35672 c 0,22.54971 16.09357,40.04679 38.92398,40.04679 22.17544,0 38.83041,-17.49708 38.83041,-40.04679 0,-22.5497 -17.40351,-39.95321 -38.83041,-39.95321 -21.23976,0 -38.92398,17.40351 -38.92398,39.95321 z m 18.99416,0 c 0,-11.50877 6.36257,-23.01754 19.92982,-23.01754 13.66082,0 19.83626,11.50877 19.83626,23.01754 0,11.50878 -5.80117,23.01755 -19.83626,23.01755 -14.40935,0 -19.92982,-11.50877 -19.92982,-23.01755 z"/>
		<path d="m 466.7807,152.80702 -44.63158,0 0,77.19298 17.59064,0 0,-30.97076 24.98246,0 0,-15.4386 -24.98246,0 0,-15.34503 27.04094,0 0,-15.43859 z"/>
		<path d="m 574.54386,230 17.59064,0 -6.92397,-77.19298 -18.71345,0 -17.12281,44.53801 -17.12281,-44.53801 -18.71345,0 -6.92397,77.19298 17.59064,0 3.64912,-45.75439 0.46784,0 15.81286,45.28655 10.47954,0 15.81286,-45.28655 0.46784,0 L 574.54386,230 Z"/>
		<path d="m 604.1813,152.80702 0,77.19298 17.59064,0 0,-30.50292 23.57895,30.50292 22.36257,0 -26.5731,-31.90643 c 9.45029,-2.99416 15.81287,-10.76024 15.81287,-22.36258 0,-15.15789 -10.8538,-22.92397 -25.16959,-22.92397 l -27.60234,0 z m 17.59064,34.24561 0,-20.21053 2.05848,0 c 6.64327,0 14.59649,0.46784 14.59649,10.10527 0,9.63742 -7.95322,10.10526 -14.59649,10.10526 l -2.05848,0 z"/>
		<path d="m 686.91666,209.97661 c -5.89474,0 -10.66667,4.77193 -10.66667,10.76023 0,5.89474 4.77193,10.66667 10.66667,10.66667 5.9883,0 10.76023,-4.77193 10.76023,-10.66667 0,-5.9883 -4.77193,-10.76023 -10.76023,-10.76023 z"/>
		<path d="m 744.54677,152.80702 0,77.19298 17.59065,0 0,-28.63158 10.5731,0 c 15.06433,0 26.38596,-8.88889 26.38596,-24.79532 0,-16 -11.32163,-23.76608 -26.38596,-23.76608 l -28.16375,0 z m 17.59065,34.52631 0,-20.49123 4.95906,0 c 6.92398,0 13.47369,2.33919 13.47369,10.2924 0,7.85965 -6.54971,10.19883 -13.47369,10.19883 l -4.95906,0 z"/>
		<path d="m 808.40205,191.35672 c 0,22.54971 16.09356,40.04679 38.92397,40.04679 22.17544,0 38.83041,-17.49708 38.83041,-40.04679 0,-22.5497 -17.4035,-39.95321 -38.83041,-39.95321 -21.23976,0 -38.92397,17.40351 -38.92397,39.95321 z m 18.99415,0 c 0,-11.50877 6.36257,-23.01754 19.92982,-23.01754 13.66082,0 19.83626,11.50877 19.83626,23.01754 0,11.50878 -5.80117,23.01755 -19.83626,23.01755 -14.40935,0 -19.92982,-11.50877 -19.92982,-23.01755 z"/>
		<path d="m 916.50879,152.80702 -17.59065,0 0,77.19298 44.16375,0 0,-15.4386 -26.5731,0 0,-61.75438 z"/>
		<path d="m 974.32312,152.80702 -17.59065,0 0,77.19298 44.16373,0 0,-15.4386 -26.57308,0 0,-61.75438 z"/>
		<path d="m 998.81582,152.80702 28.44448,42.5731 0,34.61988 17.5906,0 0,-34.61988 28.4444,-42.5731 -21.1461,0 -16.0936,24.70175 -16.0936,-24.70175 -21.14618,0 z"/>
	</g>
	<g>
		<path d="m 473.03673,366.77193 18.66667,0 0,23.22807 13.19298,0 0,-57.89474 -13.19298,0 0,23.08772 -18.66667,0 0,-23.08772 -13.19298,0 0,57.89474 13.19298,0 0,-23.22807 z"/>
		<path d="m 526.2977,374.98246 c -4.42106,0 -8,3.57894 -8,8.07017 0,4.42105 3.57894,8 8,8 4.49123,0 8.07017,-3.57895 8.07017,-8 0,-4.49123 -3.57894,-8.07017 -8.07017,-8.07017 z"/>
		<path d="m 624.37116,357.57895 -26.73684,0 0,10.17544 13.33333,0 c 0,7.08772 -6.24561,11.15789 -12.5614,11.15789 -8.14036,0 -14.73685,-8 -14.73685,-17.82456 0,-10.03509 6.59649,-18.10526 14.73685,-18.10526 5.1228,0 9.54386,2.03508 12.91228,7.43859 l 8.63158,-9.47368 c -5.05264,-6.10526 -12.14036,-9.89474 -22.31579,-9.89474 -16.28071,0 -28.21053,13.40351 -28.21053,30.03509 0,16.5614 12.63158,29.96491 28.21053,29.96491 11.36842,0 23.57894,-6.24561 26.73684,-20.91228 l 0,-12.5614 z"/>
		<path d="m 643.13431,374.98246 c -4.42105,0 -8,3.57894 -8,8.07017 0,4.42105 3.57895,8 8,8 4.49123,0 8.07018,-3.57895 8.07018,-8 0,-4.49123 -3.57895,-8.07017 -8.07018,-8.07017 z"/>
		<path d="m 727.24726,390 14.59649,0 16.49123,-57.89474 -14.5965,0 -9.89473,39.7193 -0.35088,0 -10.52632,-39.7193 -9.96491,0 -10.52631,39.7193 -0.35088,0 -9.89474,-39.7193 -14.66666,0 L 694.05427,390 708.72094,390 717.9841,357.50877 727.24726,390 Z"/>
		<path d="m 799.62226,332.10526 -33.12281,0 0,57.89474 33.12281,0 0,-11.57895 -19.92982,0 0,-11.64912 19.08771,0 0,-11.57895 -19.08771,0 0,-11.50877 19.92982,0 0,-11.57895 z"/>
		<path d="m 825.39968,332.10526 -13.19298,0 0,57.89474 33.1228,0 0,-11.57895 -19.92982,0 0,-46.31579 z"/>
		<path d="m 870.01043,332.10526 -13.19298,0 0,57.89474 33.1228,0 0,-11.57895 -19.92982,0 0,-46.31579 z"/>
		<path d="m 922.7615,331.05263 c -9.33334,0 -18.8772,6.8772 -18.8772,17.68421 0,6.03509 4.07018,11.4386 11.01755,14.8772 6.87719,3.43859 13.05263,5.33333 13.05263,9.54385 0,5.40351 -5.47368,5.68422 -8.35088,5.68422 -6.45614,0 -14.17544,-6.52632 -14.17544,-6.52632 l -6.59649,11.08772 c 0,0 8.21053,7.64912 21.75439,7.64912 11.29824,0 21.82456,-4.8421 21.82456,-18.66666 0,-7.57895 -7.08772,-13.05264 -13.54386,-15.78948 -6.59649,-2.80702 -12.07018,-5.12281 -12.07018,-8.35088 0,-3.15789 2.38597,-5.19298 6.8772,-5.19298 5.96491,0 11.7193,4 11.7193,4 l 5.33333,-10.52631 c 0,0 -7.4386,-5.47369 -17.96491,-5.47369 z"/>
	</g>
</svg>
